X: 1
T: Johnnie McIljohn's
M: 4/4
L: 1/8
R: reel
K: Gmaj
G2 GF GBdB | G2 BG A2 GE | G2 GF GABd | egdB AcBA :|
GB B2 GBdB | GBdB  A2 GE | GB B2 GBdB | egdB A2 BA |
GB B2 GBdB | GBdB  A2 GE | G2 GF GABd | egdB AcBA ||
